X: 1
T:A and D
% Nottingham Music Database
S:Rikin Wigee, via EF
M:6/8
K:G
P:A
|:A/2d/2|"B7"fed "D7"e2e|"D"fga "G"bgg|"D"fgf "G"deg|
"B"fge "A7"eda|"D"f3 -"E7"gec|"G"Bcd "D/b+"fed|
"D"fed "AF7"ABc|"Em"Bce "A"efg|"C"efg "A7"e2e|"D"fef B2d|
"D"d2f "Am"fgd|"Dm"fga dfg|"Fm"efg efg|"A"ecA "A"cec|"A#m"efe "G"g2B|"A7"ABA "D"a2e|
"B"c3 -GFA|"Bm"ABc "G7"ecA|"G"GBc "D"dB_"D"ag2|e3|"D"agd "D"d2:|


